X: 1
T: Amours amours amours
N: Derived from Jap3001-Amours_amours_amours.krn
C: Jean Japart
%%abc-version 2.0
%%abcx-abcm2ps-target-version 5.9.1 (29 Sep 2008)
%%abc-creator hum2abc beta
%%abcx-conversion-date 2019/02/16 20:40:05
%%abc-edited-by Jesse Rodin
%%abc-edited-by Chris Gage 09-04-2013
%%abcx-initial-encoding-date 2013/10/12/
%%humdrum-veritas 1961683860
%%humdrum-veritas-data 427504075
%%linebreak <none>
%%barnumbers 0
L: 1/4
M: 2/1
Q: 1/2=120
%%staves [1 2 3 4]
V: 1 clef=treble
V: 2 clef=treble-8
V: 3 clef=treble-8
V: 4 clef=bass
K: F
[V:1] z8 | 
[V:2] z8 | 
[V:3] z8 | 
[V:4] C,4F,4- | 
[V:1] z8 | 
[V:2] z8 | 
[V:3] z4C4 | 
[V:4] F,4G,4 | 
[V:1] z8 | 
[V:2] z8 | 
[V:3] F8 | 
[V:4] A,6G,F, | 
[V:1] z8 | 
[V:2] z8 | 
[V:3] G4A4- | 
[V:4] E,3D,F,2C2- | 
[V:1] z8 | 
[V:2] z8 | 
[V:3] A2GFG4 | 
[V:4] C2B,A,B,4 | 
[V:1] z8 | 
[V:2] z8 | 
[V:3] F2c3AB2- | 
[V:4] A,3G,E,F,G,2- | 
[V:1] z8 | 
[V:2] z4C4 | 
[V:3] BAGFG4 | 
[V:4] G,F,E,D,E,4 | 
[V:1] C4F4- | 
[V:2] F3GA4- | 
[V:3] F8 | 
[V:4] F,8 | 
[V:1] F4G4 | 
[V:2] A2B4AG | 
[V:3] z8 | 
[V:4] z8 | 
[V:1] A8 | 
[V:2] F2c3df2- | 
[V:3] z4F4 | 
[V:4] z8 | 
[V:1] G4F2c2- | 
[V:2] f2e2f3e | 
[V:3] c4F4 | 
[V:4] z8 | 
[V:1] cB/A/B3AGF | 
[V:2] c2d3cBA | 
[V:3] z8 | 
[V:4] z8 | 
[V:1] G2F4E2 | 
[V:2] B3AG4 | 
[V:3] z4c4 | 
[V:4] z4C,4 | 
[V:1] F8 | 
[V:2] F6GA | 
[V:3] A2A2F2F2 | 
[V:4] D,8 | 
[V:1] z4F4 | 
[V:2] B4F2B2- | 
[V:3] D4D4 | 
[V:4] B,,8- | 
[V:1] F6ED | 
[V:2] Bcd3cBA | 
[V:3] z4D4 | 
[V:4] B,,8 | 
[V:1] C6A,2 | 
[V:2] G4z2c2 | 
[V:3] E4F4 | 
[V:4] C,4A,,4 | 
[V:1] B,3CD2E2- | 
[V:2] B2d2G2g2- | 
[V:3] G8 | 
[V:4] G,,8 | 
[V:1] E2C4G2- | 
[V:2] g2e3dc2- | 
[V:3] E4C4 | 
[V:4] C,8- | 
[V:1] G2F4ED | 
[V:2] cBA2B4 | 
[V:3] D8 | 
[V:4] C,2z2z4 | 
[V:1] E8 | 
[V:2] c3BG2A2- | 
[V:3] C8 | 
[V:4] z4C,4 | 
[V:1] z8 | 
[V:2] A2GFE4 | 
[V:3] z4C4 | 
[V:4] F,4G,4 | 
[V:1] z8 | 
[V:2] F2c4BA | 
[V:3] F8 | 
[V:4] A,6G,F, | 
[V:1] z4C4 | 
[V:2] B4A2c2- | 
[V:3] G4A4- | 
[V:4] E,3D,F,4 | 
[V:1] F4G4 | 
[V:2] c2B2c4 | 
[V:3] A2GFE3D | 
[V:4] D,4C,4 | 
[V:1] A6GF | 
[V:2] F4z4 | 
[V:3] F2c2c2d2 | 
[V:4] z2F,3E,D,2 | 
[V:1] G4F2c2- | 
[V:2] c4A2F2 | 
[V:3] e4f4 | 
[V:4] C,4F,2A,2- | 
[V:1] cAB3GA2- | 
[V:2] f2g2d2f2- | 
[V:3] c2d2B2c2 | 
[V:4] A,2G,4F,2- | 
[V:1] AGF4E2 | 
[V:2] fed2c4 | 
[V:3] A2B2G4 | 
[V:4] F,2B,,2C,4 | 
[V:1] F8 ]|:  
[V:2] c8 ]|:  
[V:3] F8 ]|:  
[V:4] F,,8 ]|:  
[V:1] z8 | 
[V:2] F4A2B2 | 
[V:3] z8 | 
[V:4] F,,6G,,2 | 
[V:1] z8 | 
[V:2] c4d4- | 
[V:3] z4F4- | 
[V:4] A,,4B,,4- | 
[V:1] z8 | 
[V:2] d2cBc2F2 | 
[V:3] F2G2A4 | 
[V:4] B,,4A,,4 | 
[V:1] z8 | 
[V:2] G2F4E2 | 
[V:3] B8 | 
[V:4] G,,8 | 
[V:1] F6G2 | 
[V:2] F2c4B2 | 
[V:3] A4F4 | 
[V:4] F,,4z4 | 
[V:1] A4B4- | 
[V:2] A4G4 | 
[V:3] z2c2B2d2- | 
[V:4] F,4G,2B,2- | 
[V:1] B4A4- | 
[V:2] G4F2A2- | 
[V:3] dcB2cBAG | 
[V:4] B,A,G,2A,G,F,E, | 
[V:1] A2GFE3D | 
[V:2] A2B2c4- | 
[V:3] F4G4 | 
[V:4] D,4C,4 | 
[V:1] F8 :|]  
[V:2] c8 :|]  
[V:3] F8 :|]  
[V:4] F,,8 :|]  
[V:1] z4c4 | 
[V:2] c4A2A2 | 
[V:3] z8 | 
[V:4] F,,4F,,2F,,2 | 
[V:1] A2A2F2F2 | 
[V:2] F2F2D4 | 
[V:3] c4A2A2 | 
[V:4] F,,2F,,2F,,4- | 
[V:1] D4D2F2- | 
[V:2] z2f3ga2- | 
[V:3] F2F2D4- | 
[V:4] F,,2z2F,4 | 
[V:1] FGA3GF2 | 
[V:2] agf3df2 | 
[V:3] D8 | 
[V:4] F,6E,D, | 
[V:1] GFEDC2D2- | 
[V:2] e2c4B2- | 
[V:3] E4F4 | 
[V:4] C,4A,,2B,,2- | 
[V:1] DB,_E3CD2- | 
[V:2] B2G3AB2- | 
[V:3] G4E2F2- | 
[V:4] B,,G,,C,4B,,2- | 
[V:1] D2C4=B,2 | 
[V:2] BAF2G4 | 
[V:3] F2C2D4 | 
[V:4] B,,2A,,2G,,4 | 
[V:1] C8 | 
[V:2] E6A2- | 
[V:3] C8- | 
[V:4] z4C,4 | 
[V:1] z8 | 
[V:2] A2GFE4 | 
[V:3] C2z2C4 | 
[V:4] F,4G,4 | 
[V:1] z8 | 
[V:2] F2c4BA | 
[V:3] F8 | 
[V:4] A,6G,F, | 
[V:1] z4C4 | 
[V:2] B4A2c2- | 
[V:3] G4A4- | 
[V:4] E,3D,F,4 | 
[V:1] F4G4 | 
[V:2] c2B2c4 | 
[V:3] A2GFE3D | 
[V:4] D,4C,4 | 
[V:1] A6GF | 
[V:2] F4z4 | 
[V:3] F2c4d2 | 
[V:4] z2F,3E,D,2 | 
[V:1] G4F2c2- | 
[V:2] c4A2F2 | 
[V:3] e4f4 | 
[V:4] C,4F,2A,2- | 
[V:1] cAB3GA2- | 
[V:2] f2g2d2f2- | 
[V:3] c2d2B2c2 | 
[V:4] A,2G,4F,2- | 
[V:1] A2F4E2 | 
[V:2] fed2c4 | 
[V:3] A2B2G4 | 
[V:4] F,2B,,2C,4 | 
[V:1] F8 |]  
[V:2] c8 |]  
[V:3] F8 |]  
[V:4] F,,8 |]  



